src/assets/images/montaña_002.svg

<?xml version="1.0" encoding="UTF-8"?>
<svg width="1441px" height="714px" viewBox="0 0 1441 714" preserveAspectRatio="xMidYMin slice" version="1.1" xmlns="http://www.w3.org/2000/svg" xmlns:xlink="http://www.w3.org/1999/xlink">
    <!-- Generator: Sketch 52.2 (67145) - http://www.bohemiancoding.com/sketch -->
    <title>Fill 1</title>
    <desc>Created with Sketch.</desc>
    <g id="SVG" stroke="none" stroke-width="1" fill="none" fill-rule="evenodd">
        <path d="M0,187.911024 C0,187.911024 3.06128721,193.172647 8.27904767,195.277296 C13.4984837,197.37958 13.4984837,196.329621 20.2075116,195.277296 C26.9182151,194.224972 29.1551163,192.444296 35.1185105,196.490425 C41.0835802,200.536554 46.7638012,200.699724 56.9697674,192.200725 C67.1757337,183.701726 70.1582686,176.337819 76.8689721,176.337819 C83.578,176.337819 83.578,178.442468 101.471534,176.337819 C119.363392,174.23317 116.380857,178.442468 130.546222,181.597077 C144.711587,184.75405 145.457221,185.988463 159.622586,187.475906 C173.786276,188.963349 178.260078,180.72684 185.71474,187.475906 C193.171077,194.224972 193.91671,197.824158 205.845174,199.181538 C217.773638,200.536554 222.245765,206.850502 228.210835,210.007475 C234.174229,213.162084 234.919863,224.737654 245.357059,221.580681 C255.795931,218.423707 263.996227,218.423707 272.942156,214.214409 C281.888085,210.007475 290.090056,202.641203 296.05345,203.693528 C302.01852,204.745852 302.764153,210.007475 312.455716,210.007475 C322.147279,210.007475 336.312644,214.214409 341.530405,206.850502 C346.749841,199.48423 356.441403,205.772164 366.132966,198.945061 C375.824529,192.120322 404.900893,187.911024 412.355555,183.701726 C419.811892,179.494792 447.395313,174.23317 454.85165,166.866898 C462.306312,159.50299 491.382676,144.772811 504.802407,134.249565 C518.222138,123.728685 547.296827,111.103155 551.770629,103.736883 C556.242756,96.3706106 588.301655,75.3288488 599.484485,62.700954 C610.667315,50.0754239 618.86761,39.554543 628.559173,34.2929202 C638.250736,29.0312974 648.689608,27.9813376 658.381171,22.7197147 C668.072734,17.4580919 680.001198,18.5104165 692.675295,11.1465093 C705.349393,3.78023729 709.075886,-6.74064362 725.478152,5.88488642 C741.880419,18.5104165 749.33508,12.1964691 757.535376,23.7720393 C765.737347,35.3452448 774.683276,42.7115167 783.629205,46.9184502 C792.575134,51.1277485 803.757964,64.8056031 817.923329,66.9102523 C832.088694,69.0149014 820.905864,71.1195505 834.325595,81.6404314 L847.745327,92.1636771 C847.745327,92.1636771 856.691256,96.3706106 864.145917,103.736883 C871.602255,111.103155 918.570477,152.136718 954.355869,164.762248 C990.14126,177.390143 1018.47032,190.015673 1028.90919,186.8587 C1028.90919,186.8587 1050.52921,199.48423 1060.96641,200.536554 C1071.40361,201.588879 1078.85827,207.902826 1090.0411,210.007475 C1101.22393,212.112124 1107.189,222.661383 1127.31776,222.119849 L1147.44819,221.580681 C1147.44819,221.580681 1169.06822,221.649259 1180.99668,222.141132 C1192.92515,222.633005 1221.99984,234.206211 1237.65647,234.206211 C1253.3131,234.206211 1257.78523,240.520158 1266.73283,234.206211 C1275.67876,227.894628 1273.44186,242.624807 1289.84413,244.729456 L1306.24472,246.831741 C1306.24472,246.831741 1332.33855,259.459636 1340.53884,254.198013 L1348.74081,248.93639 C1348.74081,248.93639 1353.21294,259.268089 1370.36084,259.890025 C1387.50706,260.51196 1387.50706,252.954142 1400.9268,259.890025 C1414.34653,266.823543 1427.76626,269.980517 1430.74879,268.928192 C1433.72965,267.875867 1441,269.126833 1441,269.126833 L1441,714 L0,714 L0,187.911024 Z" id="Fill-1" fill="#5F0263"></path>
    </g>
</svg>

<svg width="1441" height="714" viewBox="0 0 1441 714" preserveAspectRatio="xMidYMin slice" 
    xmlns="http://www.w3.org/2000/svg">
    <path d="M0 187.911s3.061 5.262 8.279 7.366c5.22 2.103 5.22 1.053 11.929 0 6.71-1.052 8.947-2.833 14.91 1.213 5.966 4.047 11.646 4.21 21.852-4.29 10.206-8.498 13.188-15.862 19.899-15.862 6.709 0 6.709 2.104 24.603 0 17.891-2.105 14.909 2.104 29.074 5.26 14.166 3.156 14.911 4.39 29.077 5.878 14.163 1.487 18.637-6.75 26.092 0 7.456 6.749 8.202 10.348 20.13 11.706 11.929 1.355 16.4 7.669 22.366 10.825 5.963 3.155 6.709 14.73 17.146 11.574 10.439-3.157 18.64-3.157 27.585-7.367 8.946-4.207 17.148-11.573 23.111-10.52 5.966 1.052 6.711 6.313 16.403 6.313 9.691 0 23.857 4.207 29.074-3.156 5.22-7.367 14.911-1.079 24.603-7.906 9.692-6.825 38.768-11.034 46.223-15.243 7.456-4.207 35.04-9.469 42.496-16.835 7.454-7.364 36.53-22.094 49.95-32.617 13.42-10.521 42.495-23.147 46.969-30.513 4.472-7.366 36.53-28.408 47.713-41.036 11.183-12.626 19.384-23.146 29.075-28.408 9.692-5.262 20.13-6.312 29.822-11.573 9.692-5.262 21.62-4.21 34.294-11.573 12.674-7.367 16.4-17.888 32.803-5.262 16.402 12.625 23.857 6.311 32.057 17.887 8.202 11.573 17.148 18.94 26.094 23.146 8.946 4.21 20.129 17.888 34.294 19.992 14.166 2.105 2.983 4.21 16.403 14.73l13.42 10.524s8.945 4.207 16.4 11.573c7.456 7.366 54.424 48.4 90.21 61.025 35.785 12.628 64.114 25.254 74.553 22.097 0 0 21.62 12.625 32.057 13.678 10.438 1.052 17.892 7.366 29.075 9.47 11.183 2.105 17.148 12.654 37.277 12.113l20.13-.54s21.62.07 33.549.561c11.928.492 41.003 12.065 56.66 12.065 15.656 0 20.128 6.314 29.076 0 8.946-6.311 6.709 8.419 23.111 10.523l16.4 2.103s26.095 12.628 34.295 7.366l8.202-5.262s4.472 10.332 21.62 10.954c17.146.622 17.146-6.936 30.566 0 13.42 6.934 26.84 10.09 29.822 9.038 2.98-1.052 10.251.199 10.251.199V714H0V187.911z" fill="#5F0263" fill-rule="evenodd"/>
</svg>
